source/svgs/biocrop_layer4.svg

<svg xmlns="http://www.w3.org/2000/svg" width="4.19" height="12.43" viewBox="0 0 4.19 12.43" preserveAspectRatio="xMinYMax"><path fill="#28A197" d="M2.36 12.43h-.55V2.39c0-.04.01-.09.02-.13.04-.12.14-.2.25-.2.15 0 .28.15.28.33v10.04zM1.46 6.95c.52.61.43 1.54.43 1.54S.96 8.44.44 7.82.01 6.28.01 6.28s.93.06 1.45.67z"/><path fill="#28A197" d="M2.76 1.45c.01.8-.66 1.46-.66 1.46s-.68-.65-.69-1.45S2.08 0 2.08 0s.68.65.68 1.45zM2.73 6.95c-.52.61-.43 1.54-.43 1.54s.93-.06 1.45-.67.43-1.54.43-1.54-.93.06-1.45.67zM1.46 2.74c.52.61.43 1.54.43 1.54S.96 4.23.44 3.61.01 2.07.01 2.07s.93.06 1.45.67zM2.73 2.74c-.52.61-.43 1.54-.43 1.54s.93-.06 1.45-.67.43-1.54.43-1.54-.93.06-1.45.67zM1.46 4.84c.52.61.43 1.54.43 1.54S.96 6.33.44 5.72.01 4.18.01 4.18s.93.05 1.45.66zM2.73 4.84c-.52.62-.43 1.55-.43 1.55s.93-.06 1.45-.67.43-1.54.43-1.54-.93.05-1.45.66zM1.46 9.05c.52.61.43 1.54.43 1.54s-.93-.06-1.45-.67C-.08 9.31.01 8.38.01 8.38s.93.06 1.45.67zM2.73 9.05c-.52.61-.43 1.55-.43 1.55s.93-.06 1.45-.67c.52-.61.43-1.54.43-1.54s-.93.05-1.45.66z"/></svg>

<?xml version="1.0" encoding="utf-8"?>
<!-- Generator: Adobe Illustrator 18.1.0, SVG Export Plug-In . SVG Version: 6.00 Build 0)  -->
<svg version="1.1" id="Layer_1" xmlns="http://www.w3.org/2000/svg" xmlns:xlink="http://www.w3.org/1999/xlink" x="0px" y="0px"
	 width="4.19px" height="12.43px" viewBox="0 0 4.19 12.43" enable-background="new 0 0 4.19 12.43" xml:space="preserve" preserveAspectRatio="xMinYMax">
<g>
	<g>
		<g>
			<g id="XMLID_62_">
				<g>
					<path fill="#28A197" d="M2.36,12.43H2.21H1.81V2.39c0-0.04,0.01-0.09,0.02-0.13c0.04-0.12,0.14-0.2,0.25-0.2
						c0.15,0,0.28,0.15,0.28,0.33V12.43L2.36,12.43z"/>
				</g>
			</g>
		</g>
		<path fill="#28A197" d="M1.46,6.95c0.52,0.61,0.43,1.54,0.43,1.54S0.96,8.44,0.44,7.82S0.01,6.28,0.01,6.28S0.94,6.34,1.46,6.95z"
			/>
		<path fill="#28A197" d="M2.76,1.45C2.77,2.25,2.1,2.91,2.1,2.91S1.42,2.26,1.41,1.46S2.08,0,2.08,0S2.76,0.65,2.76,1.45z"/>
		<path fill="#28A197" d="M2.73,6.95C2.21,7.56,2.3,8.49,2.3,8.49s0.93-0.06,1.45-0.67s0.43-1.54,0.43-1.54S3.25,6.34,2.73,6.95z"/>
		<path fill="#28A197" d="M1.46,2.74c0.52,0.61,0.43,1.54,0.43,1.54S0.96,4.23,0.44,3.61S0.01,2.07,0.01,2.07S0.94,2.13,1.46,2.74z"
			/>
		<path fill="#28A197" d="M2.73,2.74C2.21,3.35,2.3,4.28,2.3,4.28s0.93-0.06,1.45-0.67s0.43-1.54,0.43-1.54S3.25,2.13,2.73,2.74z"/>
		<path fill="#28A197" d="M1.46,4.84c0.52,0.61,0.43,1.54,0.43,1.54S0.96,6.33,0.44,5.72S0.01,4.18,0.01,4.18S0.94,4.23,1.46,4.84z"
			/>
		<path fill="#28A197" d="M2.73,4.84C2.21,5.46,2.3,6.39,2.3,6.39s0.93-0.06,1.45-0.67s0.43-1.54,0.43-1.54S3.25,4.23,2.73,4.84z"/>
		<path fill="#28A197" d="M1.46,9.05c0.52,0.61,0.43,1.54,0.43,1.54s-0.93-0.06-1.45-0.67c-0.52-0.61-0.43-1.54-0.43-1.54
			S0.94,8.44,1.46,9.05z"/>
		<path fill="#28A197" d="M2.73,9.05C2.21,9.66,2.3,10.6,2.3,10.6s0.93-0.06,1.45-0.67c0.52-0.61,0.43-1.54,0.43-1.54
			S3.25,8.44,2.73,9.05z"/>
	</g>
</g>
</svg>
